dist/images/icons/metro.svg

<svg width="19" height="16" viewBox="0 0 19 16" fill="none" xmlns="http://www.w3.org/2000/svg">
<path d="M12.6596 3.76001L9.55957 10.16L6.49957 3.76001L3.95953 11.48H3.51953V12.3399H6.0996V11.5199H5.69964L6.95953 8.05994L9.23953 12.3399H9.8595L12.1396 8.01994L13.4196 11.48H12.9595V12.34H15.5996V11.48H15.1396L12.6596 3.76001Z" fill="#EE3E84"/>
<path d="M9.49992 0.399963C7.07985 0.399963 4.79992 1.35993 3.09992 3.07993C1.41996 4.79993 0.499885 7.05993 0.519849 9.43993C0.519849 11.5199 1.25981 13.5599 2.59978 15.1799C2.67972 15.28 2.77975 15.32 2.89972 15.32H5.53979C7.55976 15.32 10.1598 15.3399 12.3198 15.3399C14.0798 15.3399 15.5598 15.3399 16.2198 15.32C16.3398 15.32 16.4398 15.26 16.5197 15.16C17.8398 13.5199 18.5397 11.52 18.5397 9.41998C18.54 4.45998 14.4801 0.399978 9.50006 0.399978L9.49992 0.399963ZM15.9999 14.52C14.2799 14.56 8.81992 14.5399 5.51992 14.52H3.07992C1.93985 13.08 1.29992 11.28 1.29992 9.43996C1.29992 7.26 2.14003 5.19996 3.67996 3.63996C5.23996 2.07982 7.29996 1.19996 9.49996 1.19996C14.04 1.19996 17.74 4.89996 17.74 9.43996C17.74 11.2999 17.1401 13.06 16 14.52H15.9999Z" fill="#EE3E84"/>
</svg>

<svg width="19" height="16" fill="none" xmlns="http://www.w3.org/2000/svg"><path d="M12.66 3.76l-3.1 6.4-3.06-6.4-2.54 7.72h-.44v.86H6.1v-.82h-.4l1.26-3.46 2.28 4.28h.62l2.28-4.32 1.28 3.46h-.46v.86h2.64v-.86h-.46l-2.48-7.72z" fill="#EE3E84"/><path d="M9.5.4c-2.42 0-4.7.96-6.4 2.68C1.42 4.8.5 7.06.52 9.44c0 2.08.74 4.12 2.08 5.74.08.1.18.14.3.14h2.64c2.02 0 4.62.02 6.78.02 1.76 0 3.24 0 3.9-.02.12 0 .22-.06.3-.16a9.091 9.091 0 002.02-5.74C18.54 4.46 14.48.4 9.5.4zM16 14.52c-1.72.04-7.18.02-10.48 0H3.08a8.204 8.204 0 01.6-10.88C5.24 2.08 7.3 1.2 9.5 1.2c4.54 0 8.24 3.7 8.24 8.24 0 1.86-.6 3.62-1.74 5.08z" fill="#EE3E84"/></svg>
